img/01_144.svg

<svg width="144" height="144" viewBox="0 0 144 144" fill="none" xmlns="http://www.w3.org/2000/svg">
<path d="M102.939 116.5C104.216 116.5 105.251 115.465 105.251 114.188C105.251 112.911 104.216 111.876 102.939 111.876C101.662 111.876 100.627 112.911 100.627 114.188C100.627 115.465 101.662 116.5 102.939 116.5Z" fill="#11305D"/>
<path d="M109.704 102.755L96.1415 98.234L91.0895 88.131L91.3395 87.876C95.6335 83.506 98.5455 77.814 99.5395 71.85L100.207 67.844H105.75C110.127 67.844 113.688 64.283 113.688 59.906V42.188C113.688 19.201 94.9875 0.5 72.0005 0.5C49.0135 0.5 30.3125 19.201 30.3125 42.188V59.907C30.3125 63.26 32.4385 66.266 35.6045 67.388L35.9375 67.506V71.156C35.9375 75.533 39.4985 79.094 43.8755 79.094H46.6655L46.7995 79.385C48.0055 82.003 49.5665 84.42 51.4405 86.571C51.8325 87.021 52.2405 87.457 52.6595 87.883L52.9095 88.138L47.8605 98.235L34.2965 102.756C18.9515 107.873 7.81348 124.036 7.81348 141.189C7.81348 142.464 8.85148 143.501 10.1255 143.501H133.875C135.15 143.501 136.187 142.464 136.187 141.189C136.188 124.035 125.05 107.872 109.704 102.755ZM91.9955 100.287L91.9275 100.485C90.1915 105.51 88.0625 110.448 85.5995 115.16L85.2855 115.764L74.9125 105.391L87.7565 91.808L91.9955 100.287ZM71.6395 102.119L64.5965 95.074L66.2425 95.421C69.6325 96.135 73.0865 96.217 76.5195 95.653L77.9825 95.413L71.6395 102.119ZM109.062 59.906C109.062 61.732 107.576 63.218 105.75 63.218H100.888L100.961 62.654C101.674 57.137 102.151 51.194 102.341 45.467L102.367 44.499H109.062V59.906ZM35.0465 39.337C36.4965 20.153 52.7285 5.125 72.0005 5.125C91.2555 5.125 107.487 20.152 108.954 39.337L108.996 39.875H102.44L102.433 39.382C102.234 24.146 89.7125 11.75 74.5175 11.75H69.4845C54.2895 11.75 41.7665 24.146 41.5685 39.382L41.5625 39.875H35.0065L35.0465 39.337ZM38.2505 63.219C36.4235 63.219 34.9385 61.733 34.9385 59.907V44.5H41.6325L41.6775 45.866C41.8715 51.449 42.3425 57.243 43.0395 62.655L43.1125 63.218H38.2505V63.219ZM43.8755 74.469C42.0485 74.469 40.5635 72.983 40.5635 71.157V67.845H43.7925L44.4605 71.851C44.5705 72.507 44.7085 73.181 44.8705 73.853L45.0185 74.47H43.8755V74.469ZM46.3155 37.329C47.5445 25.383 57.5035 16.375 69.4825 16.375H74.5165C80.7395 16.375 86.5925 18.816 90.9975 23.25C95.3945 27.676 97.8155 33.543 97.8115 39.771C97.8115 40.66 97.8045 41.434 97.7895 42.138L97.7765 42.701L97.2205 42.65L93.7025 42.148C84.0385 40.768 74.9155 36.207 68.0105 29.301C67.5735 28.864 66.9925 28.624 66.3755 28.624C59.0385 28.624 51.8695 32.016 47.1985 37.696L46.1455 38.977L46.3155 37.329ZM52.2585 79.85L51.8075 79.094H58.7745L58.8925 79.427C60.0155 82.592 63.0225 84.719 66.3755 84.719H72.0005C76.3765 84.719 79.9385 81.158 79.9385 76.781C79.9385 72.404 76.3765 68.844 72.0005 68.844H66.3755C63.0135 68.844 60.0045 70.97 58.8885 74.135L58.7705 74.469H49.8425L49.7355 74.113C48.2705 69.238 46.6805 55.127 46.3395 46.693L46.3325 46.515L50.2255 41.326C53.8045 36.555 59.2755 33.625 65.2355 33.284L65.4525 33.271L65.6095 33.42C73.0935 40.542 82.8385 45.269 93.0485 46.727L97.6395 47.383L97.6185 47.837C97.3405 53.727 96.7665 59.689 95.9595 65.077C95.7835 66.28 95.6315 67.186 95.3855 68.653L94.9795 71.088C93.4135 80.48 86.2885 88.546 77.6515 90.704C75.8095 91.164 73.9095 91.397 72.0015 91.397C70.0945 91.397 68.1935 91.164 66.3535 90.704C60.6615 89.281 55.5245 85.325 52.2585 79.85ZM63.0625 76.781C63.0625 74.955 64.5485 73.469 66.3745 73.469H72.0005C73.8275 73.469 75.3125 74.955 75.3125 76.781C75.3125 78.607 73.8275 80.094 72.0005 80.094H66.3755C64.5485 80.094 63.0625 78.607 63.0625 76.781ZM55.7585 92.779L68.4605 105.48L58.7245 115.778L58.4005 115.156C55.9355 110.438 53.8065 105.503 52.0735 100.485L52.0055 100.287L55.7585 92.779ZM12.5085 138.875L12.5515 138.335C13.6865 124.147 23.2295 111.319 35.7585 107.142L48.0595 103.042L48.2255 103.501C50.3805 109.462 53.0625 115.279 56.1955 120.789C58.4985 124.84 61.0775 128.778 63.8755 132.52L67.8355 138.874H12.5085V138.875ZM72.0005 136.813L67.7625 130.008C67.7275 129.951 67.6885 129.896 67.6485 129.84C65.3715 126.803 63.2295 123.603 61.2835 120.331L61.0905 120.006L71.7335 108.753L82.9405 119.958L82.7435 120.293C80.7825 123.592 78.6325 126.805 76.3525 129.843C76.2865 129.932 76.2705 129.956 75.5145 131.174L72.0005 136.813ZM76.1655 138.875L80.1015 132.556C82.9375 128.763 85.5345 124.794 87.8435 120.725L87.8885 120.64C90.9825 115.185 93.6345 109.418 95.7755 103.501L95.9415 103.042L108.242 107.142C120.771 111.32 130.314 124.147 131.449 138.335L131.492 138.875H76.1655Z" fill="#11305D"/>
<path d="M114.23 117.724C113.823 117.41 113.335 117.244 112.823 117.244C112.098 117.244 111.429 117.573 110.989 118.147C110.612 118.637 110.448 119.244 110.528 119.856C110.608 120.468 110.922 121.013 111.411 121.389C114.13 123.481 116.379 126.211 117.913 129.285C118.469 130.396 119.895 130.88 121.016 130.319C122.157 129.75 122.621 128.358 122.051 127.216C120.206 123.522 117.502 120.24 114.23 117.724Z" fill="#11305D"/>
</svg>

<?xml version="1.0" encoding="utf-8"?>
<!-- Generator: Adobe Illustrator 15.0.2, SVG Export Plug-In . SVG Version: 6.00 Build 0)  -->
<!DOCTYPE svg PUBLIC "-//W3C//DTD SVG 1.1//EN" "http://www.w3.org/Graphics/SVG/1.1/DTD/svg11.dtd">
<svg version="1.1" id="Layer_1" xmlns="http://www.w3.org/2000/svg" xmlns:xlink="http://www.w3.org/1999/xlink" x="0px" y="0px"
	 width="144px" height="144px" viewBox="0 0 144 144" enable-background="new 0 0 144 144" xml:space="preserve">
<g>
	<circle cx="102.938" cy="114.188" r="2.312"/>
	<path d="M109.704,102.755l-13.563-4.521l-5.052-10.103l0.25-0.255c4.294-4.37,7.206-10.062,8.2-16.026l0.668-4.006h5.543
		c4.377,0,7.938-3.561,7.938-7.938V42.188C113.688,19.201,94.987,0.5,72,0.5c-22.987,0-41.688,18.701-41.688,41.688v17.719
		c0,3.353,2.126,6.359,5.292,7.481l0.333,0.118v3.65c0,4.377,3.561,7.938,7.938,7.938h2.79l0.134,0.291
		c1.206,2.618,2.767,5.035,4.641,7.186c0.392,0.45,0.8,0.886,1.219,1.312l0.25,0.255l-5.049,10.097l-13.564,4.521
		c-15.345,5.117-26.483,21.28-26.483,38.433c0,1.275,1.038,2.312,2.312,2.312h123.75c1.275,0,2.312-1.037,2.312-2.312
		C136.188,124.035,125.05,107.872,109.704,102.755z M91.995,100.287l-0.068,0.198c-1.736,5.025-3.865,9.963-6.328,14.675
		l-0.314,0.604l-10.373-10.373l12.844-13.583L91.995,100.287z M71.639,102.119l-7.043-7.045l1.646,0.347
		c3.39,0.714,6.844,0.796,10.277,0.232l1.463-0.24L71.639,102.119z M109.062,59.906c0,1.826-1.486,3.312-3.312,3.312h-4.862
		l0.073-0.564c0.713-5.517,1.19-11.46,1.38-17.187l0.026-0.968h6.695V59.906z M35.046,39.337C36.496,20.153,52.728,5.125,72,5.125
		c19.255,0,35.487,15.027,36.954,34.212l0.042,0.538h-6.556l-0.007-0.493C102.234,24.146,89.712,11.75,74.517,11.75h-5.033
		c-15.195,0-27.718,12.396-27.916,27.632l-0.006,0.493h-6.556L35.046,39.337z M38.25,63.219c-1.827,0-3.312-1.486-3.312-3.312V44.5
		h6.694l0.045,1.366c0.194,5.583,0.665,11.377,1.362,16.789l0.073,0.563H38.25z M43.875,74.469c-1.827,0-3.312-1.486-3.312-3.312
		v-3.312h3.229l0.668,4.006c0.11,0.656,0.248,1.33,0.41,2.002l0.148,0.617H43.875z M46.315,37.329
		c1.229-11.946,11.188-20.954,23.167-20.954h5.034c6.223,0,12.076,2.441,16.481,6.875c4.397,4.426,6.818,10.293,6.814,16.521
		c0,0.889-0.007,1.663-0.022,2.367l-0.013,0.563L97.22,42.65l-3.518-0.502c-9.664-1.38-18.787-5.941-25.692-12.847
		c-0.437-0.437-1.018-0.677-1.635-0.677c-7.337,0-14.506,3.392-19.177,9.072l-1.053,1.281L46.315,37.329z M52.258,79.85
		l-0.451-0.756h6.967l0.118,0.333c1.123,3.165,4.13,5.292,7.483,5.292H72c4.376,0,7.938-3.561,7.938-7.938S76.376,68.844,72,68.844
		h-5.625c-3.362,0-6.371,2.126-7.487,5.291l-0.118,0.334h-8.928l-0.107-0.356c-1.465-4.875-3.055-18.986-3.396-27.42l-0.007-0.178
		l3.893-5.189c3.579-4.771,9.05-7.701,15.01-8.042l0.217-0.013l0.157,0.149c7.484,7.122,17.229,11.849,27.439,13.307l4.591,0.656
		l-0.021,0.454c-0.278,5.89-0.852,11.852-1.659,17.24c-0.176,1.203-0.328,2.109-0.574,3.576l-0.406,2.435
		c-1.566,9.392-8.691,17.458-17.328,19.616c-1.842,0.46-3.742,0.693-5.65,0.693c-1.907,0-3.808-0.233-5.648-0.693
		C60.661,89.281,55.524,85.325,52.258,79.85z M63.062,76.781c0-1.826,1.486-3.312,3.312-3.312H72c1.827,0,3.312,1.486,3.312,3.312
		S73.827,80.094,72,80.094h-5.625C64.548,80.094,63.062,78.607,63.062,76.781z M55.758,92.779L68.46,105.48l-9.736,10.298
		l-0.324-0.622c-2.465-4.718-4.594-9.653-6.327-14.671l-0.068-0.198L55.758,92.779z M12.508,138.875l0.043-0.54
		c1.135-14.188,10.678-27.016,23.207-31.193l12.301-4.1l0.166,0.459c2.155,5.961,4.837,11.778,7.97,17.288
		c2.303,4.051,4.882,7.989,7.68,11.731l3.96,6.354H12.508z M72,136.813l-4.238-6.805c-0.035-0.057-0.074-0.112-0.114-0.168
		c-2.277-3.037-4.419-6.237-6.365-9.509l-0.193-0.325l10.643-11.253l11.207,11.205l-0.197,0.335
		c-1.961,3.299-4.111,6.512-6.391,9.55c-0.066,0.089-0.082,0.113-0.838,1.331L72,136.813z M76.165,138.875l3.936-6.319
		c2.836-3.793,5.433-7.762,7.742-11.831l0.045-0.085c3.094-5.455,5.746-11.222,7.887-17.139l0.166-0.459l12.301,4.1
		c12.529,4.178,22.072,17.005,23.207,31.193l0.043,0.54H76.165z"/>
	<path d="M114.229,117.724c-0.407-0.314-0.895-0.48-1.407-0.48c-0.725,0-1.394,0.329-1.834,0.903
		c-0.377,0.49-0.541,1.097-0.461,1.709s0.394,1.157,0.883,1.533c2.719,2.092,4.968,4.822,6.502,7.896
		c0.556,1.111,1.982,1.595,3.103,1.034c1.141-0.569,1.605-1.961,1.035-3.103C120.205,123.522,117.501,120.24,114.229,117.724z"/>
</g>
</svg>
